X: 19238
T: It's A Thought When You Think About It
R: waltz
M: 3/4
K: Edorian
E BAG FG|E BAG Fd|E BAG FA|cd AG FG|
[1 E BAG FG|E BAG FA|cd AG FA|Be ge fd:|
[2 E BAF dA|B ege gf|ed cA dc|B ege fd||
|:B eed eg|B eed ea|B eed eg|e age ag|
B eed eg|B eed ed|c2A dcA|B ege fd:|
|:B eed g2|ge fd ed|B eed a2|af ge fd|
[1 B eed g2|ge fd ed|c2A dcA|B ege fd:|
[2 E BAF dA|B ege gf|ed cA dc|B ege fd||

